packages/icons/src/emoji/svg/newspaper.svg

<svg width="120" height="120" viewBox="0 0 120 120" fill="none" xmlns="http://www.w3.org/2000/svg">
<path d="M114.469 80.1561C114.094 78.7498 113.625 77.2498 112.875 75.6561C111.656 73.0311 110.438 71.3436 110.438 71.3436L110.344 71.2498C109.875 70.4998 109.219 69.7498 108.563 68.9998C106.219 65.8123 103.688 62.8123 100.969 59.9061L100.5 59.4373C98.3438 56.9998 96.0938 54.6561 93.7501 52.3123L93.4688 52.0311C91.1251 49.6873 88.6876 47.3436 86.1563 45.0936C85.3126 44.2498 84.2813 43.4061 83.1563 42.3748C81.6563 41.0623 80.1563 39.7498 78.5626 38.4373C77.9063 37.8748 77.1563 37.3123 76.3126 36.7498C75.8438 36.3748 75.4688 35.9998 75.0001 35.7186C74.8126 35.2498 74.1563 33.8436 72.8438 32.8123C71.1563 31.6873 69.0001 30.6561 69.0001 30.6561H68.7188C67.5001 29.7186 66.8438 29.1561 66.8438 29.1561H66.7501C65.7188 28.1248 64.6876 27.0936 63.6563 26.2498C63.0001 25.7811 62.3438 25.3123 61.7813 24.7498C60.4688 23.6248 57.7501 21.6561 55.1251 19.7811C52.7813 17.9998 50.5313 16.4998 48.6563 15.1873C43.4063 11.5311 40.1251 9.46856 40.1251 9.46856C25.3126 8.06231 18.4688 11.2498 16.2188 12.7498C15.7501 13.1248 15.6563 13.7811 16.0313 14.2498C16.5001 14.7186 17.2501 15.4686 18.1876 16.3123C17.0626 16.4061 15.9376 16.5936 14.8126 16.6873C14.1563 16.7811 13.7813 17.5311 14.1563 18.0936L16.9688 22.3123C13.6876 23.3436 7.50006 25.8748 3.93756 33.8436C3.84381 34.1248 3.84381 34.4998 4.03131 34.7811C4.78131 35.8123 6.75006 38.8123 10.1251 43.2186C9.09381 46.5936 8.71881 49.4061 8.53131 50.3436C8.53131 50.4373 8.62506 50.9061 8.71881 50.9998C21.6563 66.1873 30.3751 75.2811 30.3751 75.2811L31.5001 76.4061V76.9686C31.5001 76.9686 32.0626 78.0936 32.8126 78.8436C33.4688 79.4998 34.7813 80.2498 35.2501 80.4373C36.0938 81.2811 36.7501 81.8436 37.0313 82.2186C45.5626 91.2186 55.5938 98.6248 64.6876 107.062C65.0626 107.344 66.0001 108.281 66.5626 108C67.0313 107.719 67.0313 106.781 67.0313 106.406C67.0313 105 67.4063 102.844 68.1563 100.406C71.5313 103.5 77.5313 108.094 83.9063 109.687C88.1251 110.719 91.8751 110.625 94.4063 110.344C96.6563 109.875 102 108.469 106.781 103.781C107.813 102.844 110.344 100.125 112.125 95.9061C115.875 90.7498 115.688 84.8436 114.469 80.1561Z" fill="#A1887F"/>
<path d="M112.5 81.6563L70.5938 36.375C70.5938 36.375 55.4063 38.7187 49.125 43.2187C42.8438 47.7188 40.5 60 40.5 60C40.5 60 71.5313 98.3437 81.4688 104.25C91.4063 110.156 102.281 104.531 104.906 102.281C107.625 100.125 114.844 89.3438 112.5 81.6563Z" fill="#455A64"/>
<path d="M99.5625 83.0627C99.5625 83.0627 104.437 86.6252 103.125 91.5002C101.812 96.3752 97.3125 99.0002 97.3125 99.0002L81.4688 83.8127C81.4688 83.8127 94.875 79.0315 99.5625 83.0627Z" fill="#78909C"/>
<path d="M86.7188 104.344C86.7188 104.344 78.1876 100.406 81.1876 91.5C83.9063 83.4375 94.5001 81.8437 99.5626 83.0625L78.7501 63.1875C78.7501 63.1875 62.5313 72 63.4688 78.75C64.4063 85.5 77.4376 103.594 86.7188 104.344Z" fill="#B0BEC5"/>
<path d="M94.3125 110.625C91.7812 110.906 88.0313 111.094 83.8125 109.969C75.375 107.813 67.5938 100.5 65.7188 98.25L70.5938 91.5C71.9063 93.375 73.7812 96 76.5 98.8125C79.875 102.281 82.2188 104.813 85.4062 106.125C91.9688 108.844 101.063 106.031 106.219 100.781C114.188 92.7188 112.125 79.5938 113.25 79.6875C114 79.7813 115.219 86.5313 113.062 93.4688C111.281 99.375 107.813 102.938 106.688 104.063C101.906 108.75 96.5625 110.156 94.3125 110.625Z" fill="#78909C"/>
<path d="M111.469 93.9373C111.188 94.9686 110.625 96.4686 109.594 98.1561C104.625 106.687 94.9691 108.375 94.4066 108.469C92.4379 108.75 86.6254 109.406 80.5316 106.125C75.8441 103.594 73.3129 99.8436 72.2816 98.1561C71.3441 95.9061 69.8441 91.1248 71.5316 85.9686C74.1566 77.9998 83.3441 72.4686 94.2191 72.9373C92.0629 73.4061 88.7816 74.4373 85.5004 76.8748C84.3754 77.7186 73.6879 85.6873 76.1254 94.8748C77.9066 101.625 85.8754 105.469 92.1566 105.469C101.532 105.469 110.907 97.2186 112.688 85.0311L111.469 93.9373Z" fill="#78909C"/>
<path d="M112.031 96.1874C118.688 79.8749 100.406 70.5936 91.5 73.4061C85.6875 75.1874 81 78.1874 77.4375 82.0311C76.875 82.6874 74.5313 85.2186 72.5625 89.0624C70.2188 93.5624 66.8438 102.844 66.9375 106.594C66.9375 106.875 67.0313 107.906 66.4688 108.187C65.9063 108.469 64.875 107.531 64.5938 107.25C55.5 98.8124 45.4688 91.4061 36.9375 82.4061C36.4688 81.9374 35.4375 80.9999 34.125 79.5936C32.7188 78.0936 31.5938 76.6874 30.2812 75.3749C30.2812 75.3749 21.5625 66.2811 8.625 51.0936C8.53125 50.9061 8.4375 50.5311 8.4375 50.4374C8.90625 47.2499 11.8125 25.7811 31.4063 24.2811C52.5938 22.6874 62.8125 29.4374 62.8125 29.4374L110.344 71.4374C110.438 71.4374 120.094 84.7499 112.031 96.1874Z" fill="#B0BEC5"/>
<path d="M19.7813 22.125C19.7813 22.125 9.18756 22.3125 3.93756 33.9375C3.84381 34.2188 3.84381 34.5938 4.03131 34.875C6.75006 38.625 25.0313 66.8438 62.3438 92.3438C62.3438 92.3438 67.7813 77.625 77.4376 72.4688L19.7813 22.125Z" fill="#ECEFF1"/>
<path d="M30.5625 38.4375C30.5625 38.4375 26.0625 41.8125 23.7188 44.1562C23.7188 44.1562 17.1563 37.3125 15.2812 32.625C15.2812 32.625 19.2188 28.7812 23.7188 28.6875L30.5625 38.4375ZM53.0625 64.875L47.1563 70.3125C47.1563 70.3125 51.75 75.1875 58.5938 79.0312L62.8125 72.2812L53.0625 64.875ZM34.3125 45.0937C34.3125 45.0937 30.5625 46.6875 28.125 50.5312C28.125 50.5312 34.4063 60.2812 42.5625 65.625C42.5625 65.625 46.7813 60.4687 49.125 59.25L34.3125 45.0937Z" fill="#B0BEC5"/>
<path d="M42.6558 13.4062C33.3746 14.5313 24.1871 15.75 14.9996 16.875C14.3433 16.9688 13.9683 17.7188 14.3433 18.2812C18.5621 24.8438 23.4371 31.5938 28.8746 38.4375C43.4058 56.625 58.4996 70.7812 72.1871 81.6562C73.6871 80.0625 75.9371 77.7188 79.2183 75.5625C82.4058 73.4062 88.2183 69.5625 96.0933 69.9375C100.781 70.125 104.25 71.7188 105.656 72.5625C109.875 74.7188 113.25 78.6562 114.468 80.25C113.812 77.4375 112.5 74.5313 110.343 71.3438C108.562 68.625 105.187 65.7188 103.5 64.3125C97.3121 59.0625 92.0621 52.7813 85.6871 47.8125C75.1871 39.5625 60.7496 27.8438 42.6558 13.4062Z" fill="#CFD8DC"/>
<path d="M16.3124 12.8436C18.5624 11.3436 25.4062 8.15606 40.2187 9.56231C40.2187 9.56231 50.5312 16.1248 63.7499 26.3436C65.8124 27.9373 67.6874 30.3748 69.9374 32.1561C72.2812 34.0311 76.3124 36.4686 78.7499 38.5311C89.9999 47.9998 100.125 57.9373 108.656 69.1873C108.656 69.1873 99.2812 64.3123 86.9999 68.6248C79.2187 71.3436 72.9375 77.3436 72.9375 77.3436C72.9375 77.3436 57.2812 60.2811 48.1874 48.9373C35.4374 33.0936 19.7812 17.8123 16.1249 14.3436C15.7499 13.8748 15.8437 13.2186 16.3124 12.8436Z" fill="#ECEFF1"/>
<path d="M85.7812 44.6248C85.7812 44.6248 79.9688 43.4998 74.5312 45.1873L57.75 30.1873C57.75 30.1873 61.3125 28.406 66.4688 28.6873C66.4688 28.781 79.6875 38.906 85.7812 44.6248ZM54.5625 30.9373L71.3438 46.2185C71.3438 46.2185 66.2813 46.8748 60.2813 51.656L45.9375 33.8435C45.9375 33.8435 50.3438 30.9373 54.5625 30.9373ZM100.5 59.3435C100.5 59.3435 86.4375 54.3748 70.3125 66.1873C70.3125 66.1873 66 61.5935 65.1562 59.8123C65.1562 59.8123 69.9375 54.5623 79.3125 51.5623C86.7188 49.2185 93.0938 51.4685 93.0938 51.4685L100.5 59.3435ZM61.3125 24.3748C61.3125 24.3748 51.6562 23.0623 42 27.8435L29.3438 16.4998C29.3438 16.4998 37.5 12.8435 48.0938 14.7185C48.1875 14.8123 58.2188 21.9373 61.3125 24.3748Z" fill="#B0BEC5"/>
<path d="M72.1875 81.656C72.1875 81.656 82.0312 69.0935 96.0938 69.656C106.688 70.1248 112.219 75.656 113.438 77.156C114 78.3748 115.594 82.4998 115.219 87.7498C114.844 93.3748 111.844 96.0935 111.938 96.3748C111.938 96.3748 114.375 92.531 114.375 86.6248C114.375 82.8748 112.594 78.281 111.844 77.7185C108.844 75.0935 103.219 71.2498 96 71.2498C84.4688 71.2498 79.125 77.156 73.9688 81.4685L72.1875 81.656Z" fill="#546E7A"/>
<path d="M72.1875 81.6562L69.5625 79.5938L69.1875 80.1562C69.1875 80.1562 71.3437 82.4063 72.1875 82.7813C73.0312 83.1563 74.0625 81.5625 74.0625 81.5625L72.1875 81.6562Z" fill="#546E7A"/>
<path d="M70.0312 80.9063C70.0312 80.9063 66.375 84.9375 62.625 92.3437H62.25C62.25 92.3437 64.875 85.125 69.0937 80.0625L70.0312 80.9063Z" fill="#546E7A"/>
<path d="M75.2813 35.9062C75.2813 35.9062 74.7188 34.0312 73.0313 32.8125C71.3438 31.5937 69.1875 30.6562 69.1875 30.6562C69.1875 30.6562 51.75 32.25 42 41.5312C35.3437 47.9062 31.3125 60.375 31.3125 76.9687C31.3125 76.9687 31.875 78.0937 32.625 78.8437C33.375 79.5937 35.25 80.625 35.25 80.625C35.25 80.625 35.0625 58.2187 45.5625 47.4375C53.5312 39.5625 66 36.375 75.2813 35.9062Z" fill="#8D6E63"/>
<path d="M63.3746 33.6563C63.3746 33.6563 51.5621 35.8125 44.9996 41.3438C38.4371 46.875 35.6246 54.9375 35.0621 57.75C34.4059 60.5625 36.1871 60.9375 37.3121 58.9688C38.5309 57 40.4996 48.6563 46.4059 43.875C52.5934 38.9063 56.8121 38.25 62.7184 36.4688C68.7184 34.5938 65.6246 33.1875 63.3746 33.6563Z" fill="#A1887F"/>
</svg>

<svg xmlns="http://www.w3.org/2000/svg" fill="none" aria-hidden="true" data-slot="icon" viewBox="0 0 120 120"><path fill="#A1887F" d="M114.469 80.156c-.375-1.406-.844-2.906-1.594-4.5-1.219-2.625-2.437-4.312-2.437-4.312l-.094-.094c-.469-.75-1.125-1.5-1.781-2.25-2.344-3.188-4.875-6.188-7.594-9.094l-.469-.469c-2.156-2.437-4.406-4.78-6.75-7.125l-.281-.28c-2.344-2.345-4.781-4.688-7.313-6.938-.843-.844-1.875-1.688-3-2.72-1.5-1.312-3-2.624-4.593-3.937a23 23 0 0 0-2.25-1.687c-.47-.375-.844-.75-1.313-1.031-.187-.47-.844-1.875-2.156-2.907C71.156 31.687 69 30.656 69 30.656h-.281a50 50 0 0 1-1.875-1.5h-.094c-1.031-1.031-2.062-2.062-3.094-2.906-.656-.469-1.312-.938-1.875-1.5-1.312-1.125-4.03-3.094-6.656-4.969-2.344-1.781-4.594-3.281-6.469-4.594-5.25-3.656-8.53-5.718-8.53-5.718-14.813-1.407-21.657 1.78-23.907 3.28-.469.376-.563 1.032-.188 1.5a55 55 0 0 0 2.157 2.063c-1.125.094-2.25.282-3.375.375-.657.094-1.032.844-.657 1.407l2.813 4.218C13.688 23.344 7.5 25.875 3.938 33.844c-.094.28-.094.656.093.937.75 1.031 2.72 4.031 6.094 8.438-1.031 3.375-1.406 6.187-1.594 7.125 0 .093.094.562.188.656 12.937 15.187 21.656 24.28 21.656 24.28l1.125 1.125v.563s.563 1.125 1.313 1.875c.656.656 1.968 1.406 2.437 1.593.844.844 1.5 1.407 1.781 1.782 8.532 9 18.563 16.406 27.657 24.843.375.282 1.312 1.219 1.875.938.468-.281.468-1.219.468-1.594 0-1.406.375-3.562 1.125-6 3.375 3.094 9.375 7.688 15.75 9.281 4.22 1.032 7.97.938 10.5.657 2.25-.469 7.594-1.875 12.375-6.563 1.032-.937 3.563-3.656 5.344-7.875 3.75-5.156 3.563-11.062 2.344-15.75"/><path fill="#455A64" d="M112.5 81.656 70.594 36.375s-15.188 2.344-21.469 6.844S40.5 60 40.5 60s31.031 38.344 40.969 44.25c9.937 5.906 20.812.281 23.437-1.969 2.719-2.156 9.938-12.937 7.594-20.625"/><path fill="#78909C" d="M99.563 83.063s4.874 3.562 3.562 8.437c-1.313 4.875-5.812 7.5-5.812 7.5L81.469 83.813s13.406-4.782 18.094-.75"/><path fill="#B0BEC5" d="M86.719 104.344s-8.531-3.938-5.531-12.844c2.718-8.062 13.312-9.656 18.375-8.437L78.75 63.186S62.531 72 63.47 78.75c.937 6.75 13.969 24.844 23.25 25.594"/><path fill="#78909C" d="M94.313 110.625c-2.532.281-6.282.469-10.5-.656-8.438-2.156-16.22-9.469-18.094-11.719l4.875-6.75c1.312 1.875 3.187 4.5 5.906 7.313 3.375 3.468 5.719 6 8.906 7.312 6.563 2.719 15.657-.094 20.813-5.344 7.969-8.062 5.906-21.187 7.031-21.094.75.094 1.969 6.844-.188 13.782a25.25 25.25 0 0 1-6.374 10.594c-4.782 4.687-10.126 6.093-12.376 6.562"/><path fill="#78909C" d="M111.469 93.937c-.281 1.032-.844 2.532-1.875 4.22-4.969 8.53-14.625 10.218-15.187 10.312-1.97.281-7.782.937-13.875-2.344-4.688-2.531-7.22-6.281-8.25-7.969-.938-2.25-2.438-7.031-.75-12.187 2.625-7.97 11.812-13.5 22.687-13.032-2.156.47-5.437 1.5-8.719 3.938-1.125.844-11.812 8.812-9.375 18 1.782 6.75 9.75 10.594 16.032 10.594 9.375 0 18.75-8.25 20.531-20.438z"/><path fill="#B0BEC5" d="M112.031 96.187c6.657-16.312-11.625-25.593-20.531-22.78-5.812 1.78-10.5 4.78-14.062 8.624-.563.656-2.907 3.188-4.876 7.031-2.343 4.5-5.718 13.782-5.624 17.532 0 .281.093 1.312-.47 1.593-.562.282-1.593-.656-1.874-.937-9.094-8.438-19.125-15.844-27.656-24.844-.47-.469-1.5-1.406-2.813-2.812-1.406-1.5-2.531-2.907-3.844-4.22 0 0-8.718-9.093-21.656-24.28a2.4 2.4 0 0 1-.187-.657c.468-3.187 3.374-24.656 22.968-26.156 21.188-1.594 31.407 5.156 31.407 5.156l47.531 42c.094 0 9.75 13.313 1.687 24.75"/><path fill="#ECEFF1" d="M19.781 22.125s-10.593.188-15.843 11.813c-.094.28-.094.656.093.937 2.72 3.75 21 31.969 58.313 57.469 0 0 5.437-14.719 15.094-19.875z"/><path fill="#B0BEC5" d="M30.563 38.438s-4.5 3.374-6.844 5.718c0 0-6.563-6.843-8.438-11.531 0 0 3.938-3.844 8.438-3.937zm22.5 26.437-5.907 5.438s4.594 4.874 11.438 8.718l4.218-6.75zm-18.75-19.781s-3.75 1.593-6.188 5.437c0 0 6.281 9.75 14.438 15.094 0 0 4.218-5.156 6.562-6.375z"/><path fill="#CFD8DC" d="M42.656 13.406C33.375 14.531 24.187 15.75 15 16.875c-.657.094-1.032.844-.657 1.406 4.22 6.563 9.094 13.313 14.532 20.157a272 272 0 0 0 43.312 43.218c1.5-1.594 3.75-3.937 7.031-6.094 3.188-2.156 9-6 16.875-5.624 4.688.187 8.157 1.78 9.563 2.624 4.219 2.157 7.594 6.094 8.812 7.688-.656-2.812-1.968-5.719-4.125-8.906-1.781-2.719-5.156-5.625-6.843-7.031-6.188-5.25-11.438-11.532-17.813-16.5-10.5-8.25-24.937-19.97-43.031-34.407"/><path fill="#ECEFF1" d="M16.312 12.844c2.25-1.5 9.094-4.688 23.907-3.282 0 0 10.312 6.563 23.53 16.782 2.063 1.593 3.938 4.03 6.188 5.812 2.344 1.875 6.375 4.313 8.813 6.375C90 48 100.125 57.937 108.656 69.187c0 0-9.375-4.875-21.656-.562-7.781 2.719-14.062 8.719-14.062 8.719S57.28 60.28 48.188 48.937C35.437 33.094 19.78 17.812 16.124 14.344c-.375-.47-.281-1.125.187-1.5"/><path fill="#B0BEC5" d="M85.781 44.625s-5.812-1.125-11.25.562l-16.781-15s3.563-1.781 8.719-1.5c0 .094 13.219 10.219 19.312 15.938M54.562 30.937l16.782 15.281s-5.063.657-11.063 5.438L45.938 33.844s4.406-2.907 8.624-2.907M100.5 59.343s-14.062-4.968-30.187 6.844c0 0-4.313-4.593-5.157-6.375 0 0 4.781-5.25 14.156-8.25 7.407-2.343 13.782-.093 13.782-.093zM61.313 24.375S51.656 23.062 42 27.843L29.344 16.5s8.156-3.656 18.75-1.781c.093.093 10.125 7.218 13.218 9.656"/><path fill="#546E7A" d="M72.188 81.656s9.843-12.562 23.906-12c10.594.469 16.125 6 17.344 7.5.562 1.219 2.156 5.344 1.781 10.594-.375 5.625-3.375 8.344-3.281 8.625 0 0 2.437-3.844 2.437-9.75 0-3.75-1.781-8.344-2.531-8.906-3-2.625-8.625-6.47-15.844-6.47-11.531 0-16.875 5.907-22.031 10.22z"/><path fill="#546E7A" d="m72.188 81.656-2.626-2.062-.374.562s2.156 2.25 3 2.625 1.874-1.219 1.874-1.219z"/><path fill="#546E7A" d="M70.031 80.906s-3.656 4.031-7.406 11.438h-.375s2.625-7.219 6.844-12.281z"/><path fill="#8D6E63" d="M75.281 35.906s-.562-1.875-2.25-3.093c-1.687-1.22-3.844-2.157-3.844-2.157S51.75 32.25 42 41.531c-6.656 6.375-10.687 18.844-10.687 35.438 0 0 .562 1.125 1.312 1.875s2.625 1.781 2.625 1.781-.187-22.406 10.313-33.187C53.53 39.562 66 36.375 75.28 35.906"/><path fill="#A1887F" d="M63.375 33.656S51.562 35.813 45 41.344c-6.563 5.531-9.375 13.593-9.938 16.406-.656 2.813 1.125 3.188 2.25 1.219C38.531 57 40.5 48.656 46.406 43.875c6.187-4.969 10.406-5.625 16.312-7.406 6-1.875 2.907-3.282.657-2.813"/></svg>
